img/composition-icon.svg

<svg width="46" height="46" viewBox="0 0 46 46" fill="none" xmlns="http://www.w3.org/2000/svg">
<path d="M44.6903 7.1641L38.8069 1.27893C37.9858 0.457505 36.8943 0 35.7301 0C34.5659 0 33.4641 0.457505 32.6429 1.27893C31.7802 2.14195 31.3436 3.29611 31.3644 4.46067C30.2002 4.43987 29.0464 4.87658 28.1837 5.7396C27.3209 6.60262 26.8843 7.75678 26.9051 8.92134C25.7409 8.89015 24.5871 9.33725 23.7244 10.2003C22.8616 11.0633 22.425 12.2175 22.4458 13.382C21.2816 13.3612 20.1278 13.7979 19.2651 14.6609L4.71265 29.2179L0.315736 33.6162C0.191001 33.7306 0.0974494 33.8865 0.0454764 34.0529C0.0454764 34.0737 0.0350818 34.0841 0.0350818 34.1049C-0.0272858 34.344 -0.00649662 34.5832 0.0974494 34.7911C0.118239 34.8431 0.149422 34.8847 0.170212 34.9367C0.305341 35.1343 0.502839 35.2902 0.752309 35.363L4.31766 36.382L5.33633 39.9485C5.42988 40.2916 5.70014 40.5619 6.05355 40.6659L9.6189 41.6849L10.6376 45.2514C10.7103 45.5009 10.8663 45.6985 11.0741 45.8336C11.1157 45.8648 11.1573 45.8856 11.2093 45.9064C11.3444 45.9688 11.4899 46 11.6355 46C11.729 46 11.8226 45.9896 11.9265 45.9584C12.1136 45.9064 12.2695 45.8128 12.3943 45.6777L16.7912 41.2794L23.1007 34.9679C23.2254 35.0927 23.371 35.1759 23.5373 35.2278C23.9011 35.3318 24.2961 35.2382 24.5663 34.9679L32.0816 27.4503C32.487 27.0448 32.487 26.3897 32.0816 25.9842L31.9881 25.8906C32.4247 25.1731 32.6325 24.3517 32.6222 23.5303C33.7863 23.5511 34.9401 23.1144 35.8029 22.2514C36.6656 21.3883 37.1022 20.2342 37.0814 19.0696C38.2456 19.1008 39.3994 18.6537 40.2622 17.7907C41.1249 16.9277 41.5615 15.7735 41.5407 14.609C42.7049 14.6297 43.8587 14.193 44.7215 13.33C45.5426 12.5086 46 11.4064 46 10.2419C45.9688 9.0877 45.5218 7.98553 44.6903 7.1641ZM12.1344 42.9638L11.4484 40.5411C11.3548 40.198 11.0845 39.9277 10.7311 39.8237L7.16578 38.8151L6.14711 35.2486C6.05356 34.9055 5.7833 34.6352 5.42988 34.5312L3.00794 33.8449L5.42988 31.4222L14.5459 40.5411L12.1344 42.9638ZM24.4208 32.1501L21.9781 20.8476C21.8533 20.2862 21.3024 19.9326 20.7411 20.047C20.1798 20.1718 19.8264 20.7229 19.9407 21.2844L22.4043 32.6908L16.022 39.075L6.90591 29.9561L19.9927 16.8653L29.8468 26.7224L24.4208 32.1501ZM43.2246 11.8639C42.5282 12.5606 41.468 12.7373 40.5948 12.2902C40.1998 12.0927 39.7113 12.1655 39.3994 12.4878C39.0876 12.8101 39.0044 13.2884 39.2019 13.6835C39.6385 14.5674 39.4618 15.6279 38.7758 16.3142C38.0897 17.0005 37.0191 17.1876 36.1459 16.7405C35.7509 16.5429 35.2624 16.6157 34.9505 16.9381C34.6387 17.25 34.5555 17.7387 34.753 18.1338C35.1896 19.0176 35.0129 20.0782 34.3269 20.7645C33.6304 21.4611 32.5702 21.6379 31.697 21.1908C31.302 20.9932 30.8135 21.066 30.5017 21.3883C30.1898 21.7003 30.1067 22.189 30.3042 22.5841C30.5744 23.1352 30.616 23.7486 30.4289 24.3101L21.6662 15.5448C22.2276 15.368 22.8408 15.3992 23.3917 15.6695C23.7867 15.8671 24.2753 15.7943 24.5871 15.472C24.899 15.1496 24.9821 14.6713 24.7846 14.2762C24.348 13.3924 24.5248 12.3318 25.2108 11.6456C25.8968 10.9593 26.9675 10.7722 27.8406 11.2193C28.2356 11.4168 28.7242 11.344 29.036 11.0217C29.3479 10.7098 29.431 10.2211 29.2335 9.82595C28.7969 8.94213 28.9736 7.88155 29.6597 7.1953C30.3561 6.49864 31.4164 6.32188 32.2895 6.76899C32.6845 6.96655 33.1731 6.89376 33.4849 6.57143C33.7967 6.25949 33.8799 5.7708 33.6824 5.37568C33.2458 4.49186 33.4225 3.43128 34.1086 2.74503C34.5452 2.30832 35.1169 2.07957 35.7301 2.07957C36.3434 2.07957 36.9151 2.31872 37.3517 2.74503L43.2246 8.6302C43.6612 9.06691 43.8899 9.63879 43.8899 10.2523C43.8899 10.8553 43.6508 11.4376 43.2246 11.8639Z" fill="white"/>
</svg>

<svg width="46" height="46" fill="none" xmlns="http://www.w3.org/2000/svg"><path d="M44.69 7.164L38.807 1.28A4.324 4.324 0 0035.73 0a4.348 4.348 0 00-3.087 1.279 4.379 4.379 0 00-1.279 3.182 4.375 4.375 0 00-3.18 1.279 4.378 4.378 0 00-1.279 3.181 4.334 4.334 0 00-3.18 1.28 4.378 4.378 0 00-1.28 3.181 4.376 4.376 0 00-3.18 1.279L4.713 29.218.316 33.616a.991.991 0 00-.27.437c0 .02-.01.031-.01.052a.97.97 0 00.061.686c.021.052.052.094.073.146.135.197.333.353.582.426l3.566 1.019 1.018 3.567c.094.343.364.613.718.717l3.565 1.019 1.019 3.566c.072.25.228.448.436.583a.56.56 0 00.135.072 1.016 1.016 0 00.718.052.98.98 0 00.467-.28l4.397-4.399 6.31-6.311a1.036 1.036 0 001.466 0l7.515-7.518a1.036 1.036 0 000-1.466l-.094-.093a4.428 4.428 0 00.634-2.36 4.376 4.376 0 003.18-1.28 4.379 4.379 0 001.28-3.181 4.335 4.335 0 003.18-1.28 4.379 4.379 0 001.279-3.181 4.376 4.376 0 003.18-1.279A4.351 4.351 0 0046 10.242c-.031-1.154-.478-2.256-1.31-3.078zm-32.556 35.8l-.686-2.423a1.039 1.039 0 00-.717-.717l-3.565-1.009-1.019-3.566a1.038 1.038 0 00-.717-.718l-2.422-.686 2.422-2.423 9.116 9.12-2.412 2.422zM24.421 32.15l-2.443-11.302a1.05 1.05 0 00-1.237-.801 1.05 1.05 0 00-.8 1.237l2.463 11.407-6.382 6.384-9.116-9.119 13.087-13.09 9.854 9.856-5.426 5.428zm18.804-20.286a2.261 2.261 0 01-2.63.426 1.028 1.028 0 00-1.196.198c-.311.322-.395.8-.197 1.196a2.29 2.29 0 01-.426 2.63 2.275 2.275 0 01-2.63.427 1.028 1.028 0 00-1.196.197c-.311.312-.395.8-.197 1.196a2.29 2.29 0 01-.426 2.63 2.262 2.262 0 01-2.63.427 1.028 1.028 0 00-1.195.197 1.047 1.047 0 00-.198 1.196 2.27 2.27 0 01.125 1.726l-8.763-8.765a2.317 2.317 0 011.726.124c.395.198.883.125 1.195-.197.312-.322.395-.8.198-1.196a2.29 2.29 0 01.426-2.63 2.275 2.275 0 012.63-.427c.395.198.883.125 1.195-.197.312-.312.395-.8.197-1.196a2.29 2.29 0 01.427-2.63 2.261 2.261 0 012.63-.427c.395.198.883.125 1.195-.198.312-.312.395-.8.197-1.195a2.29 2.29 0 01.427-2.631 2.262 2.262 0 011.621-.665c.613 0 1.185.239 1.622.665l5.873 5.885c.436.437.665 1.009.665 1.622 0 .603-.24 1.186-.665 1.612z" fill="#fff"/></svg>
